src/assets/images/free-demat-compaign/free-demat-account-opening-with-low-dp-charges.svg

<svg width="76" height="109" viewBox="0 0 76 109" fill="none" xmlns="http://www.w3.org/2000/svg">
<path d="M61.0576 84.3277C57.706 84.3277 54.3058 84.3277 50.9542 84.3277C50.5656 84.3277 50.2256 84.3277 49.7398 84.3277C49.7398 83.0648 49.7398 81.899 49.7398 80.7818C49.6913 78.9846 48.6712 78.1588 46.874 78.4988C40.8022 79.616 34.6819 79.616 28.6101 78.4988C26.7643 78.1588 25.7929 78.9846 25.7443 80.8789C25.7443 81.9961 25.7443 83.0648 25.7443 84.3277C25.21 84.3277 24.8214 84.3277 24.4328 84.3277C21.0812 84.3277 17.681 84.3277 14.3294 84.3277C13.0179 84.3277 12.1921 84.8134 11.9007 85.7849C11.5607 86.9021 12.0464 87.6793 12.8722 88.3593C20.5954 94.9168 28.2701 101.523 35.9934 108.08C37.3049 109.198 38.1792 109.198 39.4421 108.08C47.1654 101.523 54.8401 94.9168 62.5634 88.3593C63.632 87.4364 63.9234 86.6592 63.5348 85.6878C63.0977 84.5706 62.1748 84.2791 61.0576 84.2791V84.3277Z" fill="url(#paint0_linear_258_441)"/>
<path d="M38.131 0.0025994C17.1956 -0.240271 0.19471 16.5663 0.000414295 37.6474C-0.0967337 58.4371 16.9042 75.3408 37.4024 75.4866C58.192 75.6323 75.1929 58.9714 75.4844 37.9874C75.7272 17.3921 58.8721 0.245469 38.131 0.0025994ZM55.7148 33.3729C55.4719 33.3729 55.229 33.3729 54.9862 33.3729C52.3146 33.3729 49.6916 33.3729 47.02 33.3729C46.2428 33.3729 45.9028 33.5186 45.66 34.393C44.4456 39.4447 39.9768 42.8934 34.7308 42.9906C32.9821 42.9906 31.2821 42.9906 29.2905 42.9906C29.6791 43.3792 29.922 43.6706 30.1649 43.9135C35.1194 48.868 40.0254 53.774 44.9799 58.7285C45.2714 59.02 45.5628 59.2629 45.7571 59.6029C46.1943 60.3315 46.1457 61.0601 45.5628 61.643C44.9313 62.2744 44.2027 62.3716 43.4255 61.8858C43.1341 61.6916 42.8912 61.4487 42.6484 61.2058C36.5766 55.1341 30.4563 49.0137 24.3846 42.942C23.7045 42.262 23.1702 41.6305 23.6074 40.6104C24.0445 39.5904 24.9189 39.5418 25.8418 39.5418C28.9019 39.5418 31.9135 39.5418 34.9737 39.5418C38.5682 39.4932 41.774 36.8217 42.4055 33.3729C40.5597 33.3729 38.811 33.3729 37.0138 33.3729C33.1764 33.3729 29.2905 33.3729 25.4532 33.3729C24.2388 33.3729 23.4616 32.6443 23.5102 31.6243C23.5102 30.6528 24.2874 30.0213 25.4532 29.9727C25.696 29.9727 25.9389 29.9727 26.1818 29.9727C31.1849 29.9727 36.188 29.9727 41.1426 29.9727H42.6484C42.0655 28.8555 41.6769 27.7869 41.094 26.9612C39.5396 24.8239 37.3538 23.7553 34.6822 23.7553C31.7192 23.7553 28.8048 23.7553 25.8418 23.7553C25.4046 23.7553 24.9674 23.7553 24.5788 23.6096C23.7531 23.3667 23.3645 22.7352 23.4131 21.9095C23.4616 21.0837 23.9474 20.5494 24.7731 20.4037C25.1132 20.3551 25.5018 20.4037 25.8418 20.4037C35.6051 20.4037 45.3199 20.4037 55.0833 20.4037C55.3262 20.4037 55.569 20.4037 55.8119 20.4037C56.7834 20.5008 57.3177 21.0837 57.3663 22.0066C57.4149 22.8809 56.9291 23.5124 56.1034 23.7067C55.6176 23.8038 55.0347 23.8038 54.5004 23.8038C51.0517 23.8038 47.5543 23.8038 44.1056 23.8038H42.8912C44.397 25.6011 45.4171 27.4469 45.8057 29.5842C45.8057 29.7785 46.3886 29.9727 46.7286 29.9727C49.6916 29.9727 52.7032 29.9727 55.6662 29.9727C56.6862 29.9727 57.4149 30.6528 57.4149 31.5757C57.4149 32.5472 56.7348 33.2758 55.6662 33.3729H55.7148Z" fill="url(#paint1_linear_258_441)"/>
<defs>
<linearGradient id="paint0_linear_258_441" x1="37.7451" y1="78.4238" x2="37.7451" y2="108.918" gradientUnits="userSpaceOnUse">
<stop stop-color="#8EF8AA"/>
<stop offset="1" stop-color="#00EFD1"/>
</linearGradient>
<linearGradient id="paint1_linear_258_441" x1="37.7435" y1="0" x2="37.7435" y2="75.4875" gradientUnits="userSpaceOnUse">
<stop stop-color="#8EF8AA"/>
<stop offset="1" stop-color="#00EFD1"/>
</linearGradient>
</defs>
</svg>

<svg width="76" height="109" fill="none" xmlns="http://www.w3.org/2000/svg"><path d="M61.058 84.328H49.74v-3.546c-.049-1.797-1.069-2.623-2.866-2.283a50.182 50.182 0 0 1-18.264 0c-1.846-.34-2.817.486-2.866 2.38v3.449H14.33c-1.311 0-2.137.485-2.428 1.457-.34 1.117.145 1.894.971 2.574 7.723 6.558 15.398 13.164 23.121 19.721 1.312 1.118 2.186 1.118 3.45 0 7.722-6.557 15.397-13.163 23.12-19.72 1.069-.924 1.36-1.7.972-2.672-.437-1.117-1.36-1.409-2.477-1.409v.049z" fill="url(#a)"/><path d="M38.131.003C17.196-.24.195 16.566.001 37.647c-.098 20.79 16.903 37.694 37.401 37.84 20.79.145 37.79-16.516 38.082-37.5C75.727 17.392 58.872.245 38.131.003zm17.584 33.37H47.02c-.777 0-1.117.146-1.36 1.02-1.214 5.052-5.683 8.5-10.93 8.598h-5.44c.39.388.632.68.875.922L44.98 58.73c.291.291.583.534.777.874.437.728.389 1.457-.194 2.04-.632.631-1.36.729-2.138.243-.29-.194-.534-.437-.777-.68L24.385 42.942c-.68-.68-1.215-1.312-.778-2.332.438-1.02 1.312-1.068 2.235-1.068h9.132c3.594-.049 6.8-2.72 7.432-6.17H25.454c-1.215 0-1.992-.728-1.944-1.748 0-.971.777-1.603 1.943-1.651h17.195c-.583-1.117-.971-2.186-1.554-3.012-1.554-2.137-3.74-3.206-6.412-3.206h-8.84c-.437 0-.875 0-1.263-.145-.826-.243-1.215-.875-1.166-1.7.049-.826.534-1.36 1.36-1.506.34-.049.729 0 1.069 0h29.97c.971.097 1.506.68 1.554 1.603.049.874-.437 1.505-1.263 1.7-.485.097-1.068.097-1.603.097H42.891c1.506 1.797 2.526 3.643 2.915 5.78 0 .195.583.389.923.389h8.937c1.02 0 1.749.68 1.749 1.603 0 .971-.68 1.7-1.749 1.797h.049z" fill="url(#b)"/><defs><linearGradient id="a" x1="37.745" y1="78.424" x2="37.745" y2="108.918" gradientUnits="userSpaceOnUse"><stop stop-color="#8EF8AA"/><stop offset="1" stop-color="#00EFD1"/></linearGradient><linearGradient id="b" x1="37.743" y1="0" x2="37.743" y2="75.487" gradientUnits="userSpaceOnUse"><stop stop-color="#8EF8AA"/><stop offset="1" stop-color="#00EFD1"/></linearGradient></defs></svg>
